X:230
T:The Blarney Pilgrim
M:6/8
L:1/8
K:G
P:A
"G"D2D DEG|"D"A2G ABc|"G"BAG AGE|"C"G2A "D7"GED|
"G"D2D DEG|"D"A2G ABc|"G"BAG AGE|"D"GED D3:|
P:B
|:"G"d2d dBG|"D"AGA BGE|"G"d2d dBG|"D"ABA "G"G2B|
"Em"g2e dBG|"Am"AGA "Em"BGE|"G"B2G "C"AGE|1 "G"GAG G3:|2 "G"GAG "Am"GFG||
P:C
|:"D"A2D B2D|A2D ABc|"G"BAG AGE|"C"GEA GED|
"D"A2D B2D|A2D ABc|"G"BAG AGE|"D"GED D3:|

